X: 23
T:Shetland Fiddler
M:C
L:1/8
K:D
(3ABc| d2 fd Adfe |defg afdf |e2 ge Beed| cdef gece|
d2 fd Adfe| defg afdg| (3fga fd (3fgafd| Bgec d :|
|: cd| eAfA gAaA| faaf gfed| (3AAA BAcA| dA| efed cABc|
(3ddd ed fdgd| faaf gfed| (3fga fd (3 fga fd| Bgec d2 :|
